src/lib/packages/icons/src/assets/filled/home-lock.svg

<svg width="24" height="24" viewBox="0 0 24 24" fill="none" xmlns="http://www.w3.org/2000/svg">
<path fill-rule="evenodd" clip-rule="evenodd" d="M13 11.25V12.625H11V11.25C11 10.699 11.448 10.25 12 10.25C12.552 10.25 13 10.699 13 11.25ZM21 11.651V18C21 20 20 21 18 21H6C4 21 3 20 3 18V11.651C3 9.65302 3.52305 9.34608 4.43005 8.58608L10.394 3.58498C11.323 2.80598 12.6781 2.80598 13.6071 3.58498L19.571 8.58608C20.477 9.34608 21 9.65202 21 11.651ZM15.5 14.125C15.5 13.315 15.155 12.8511 14.5 12.6961V11.25C14.5 9.87202 13.379 8.75002 12 8.75002C10.621 8.75002 9.5 9.87202 9.5 11.25V12.6961C8.845 12.8501 8.5 13.315 8.5 14.125V16.375C8.5 17.375 9 17.875 10 17.875H14C15 17.875 15.5 17.375 15.5 16.375V14.125Z" fill="currentColor"/>
</svg>

<svg xmlns="http://www.w3.org/2000/svg" width="24" height="24" fill="none"><path fill="currentColor" fill-rule="evenodd" d="M13 11.25v1.375h-2V11.25a1.001 1.001 0 0 1 2 0Zm8 .401V18c0 2-1 3-3 3H6c-2 0-3-1-3-3v-6.349c0-1.998.523-2.305 1.43-3.065l5.964-5.001a2.5 2.5 0 0 1 3.213 0l5.964 5.001c.906.76 1.429 1.066 1.429 3.065Zm-5.5 2.474c0-.81-.345-1.274-1-1.429V11.25c0-1.378-1.121-2.5-2.5-2.5a2.503 2.503 0 0 0-2.5 2.5v1.446c-.655.154-1 .619-1 1.429v2.25c0 1 .5 1.5 1.5 1.5h4c1 0 1.5-.5 1.5-1.5v-2.25Z" clip-rule="evenodd"/></svg>
